assets/svg/webp_convert.svg

<svg width="50" height="50" viewBox="0 0 50 50" fill="none" xmlns="http://www.w3.org/2000/svg">
<path d="M31.2293 0.624725H10.9836C8.23139 0.624725 6 2.86349 6 5.62475V45C6 47.7612 8.23139 50 10.9836 50H38.3932C41.1454 50 43.3768 47.7612 43.3768 45V12.8123L31.2293 0.624725Z" fill="#C6DFF1"/>
<path d="M43.6883 12.8123H36.5244C33.6003 12.8123 31.2293 10.4335 31.2293 7.49977V0.312225L43.6883 12.8123Z" fill="#78A1D1"/>
<path d="M43.6882 13.1248H36.5244C33.4327 13.1248 30.9178 10.6017 30.9178 7.49976V0.312224C30.9178 0.185974 30.9938 0.0715981 31.1103 0.0234728C31.2262 -0.0240274 31.3608 0.0015976 31.4498 0.0909731L43.9088 12.591C43.9978 12.6804 44.0246 12.8148 43.976 12.9317C43.9275 13.0485 43.8141 13.1248 43.6882 13.1248ZM31.5408 1.0666V7.49976C31.5408 10.2567 33.7765 12.4998 36.5244 12.4998H42.9363L31.5408 1.0666Z" fill="#1F212B"/>
<path d="M35.5899 46.875H13.7868C11.2103 46.875 9.11473 44.7725 9.11473 42.1875V8.43727C9.11473 6.90914 9.86289 5.47225 11.1169 4.5935C11.2564 4.496 11.4514 4.5285 11.5505 4.671C11.6489 4.81288 11.6146 5.00725 11.4732 5.106C10.3868 5.86788 9.73768 7.11289 9.73768 8.43727V42.1875C9.73768 44.4275 11.5542 46.25 13.7868 46.25H35.5899C37.8226 46.25 39.6391 44.4275 39.6391 42.1875V31.5624C39.6391 31.3899 39.7786 31.2499 39.9506 31.2499C40.1225 31.2499 40.262 31.3899 40.262 31.5624V42.1875C40.262 44.7725 38.1665 46.875 35.5899 46.875Z" fill="#1F212B"/>
<path d="M39.9506 30.6249C39.7786 30.6249 39.6391 30.4849 39.6391 30.3124V25.9374C39.6391 25.7649 39.7786 25.6249 39.9506 25.6249C40.1225 25.6249 40.262 25.7649 40.262 25.9374V30.3124C40.262 30.4849 40.1225 30.6249 39.9506 30.6249Z" fill="#1F212B"/>
<path d="M39.9506 25.0449C39.7786 25.0449 39.6391 24.9049 39.6391 24.7324V22.8123C39.6391 22.6398 39.7786 22.4998 39.9506 22.4998C40.1225 22.4998 40.262 22.6398 40.262 22.8123V24.7324C40.262 24.9055 40.1225 25.0449 39.9506 25.0449Z" fill="#1F212B"/>
<path d="M12.1603 26.4149C12.1603 26.2742 12.25 26.1536 12.4294 26.0499C12.6082 25.9461 12.7945 25.8949 12.9876 25.8949C13.2262 25.8949 13.3695 25.9817 13.4162 26.1549L14.9904 31.5749L15.8376 28.0949C15.898 27.8555 16.1104 27.7349 16.4755 27.7349C16.8343 27.7349 17.0436 27.8555 17.1034 28.0949L17.95 31.5749L19.5248 26.1549C19.5715 25.9817 19.7142 25.8949 19.9534 25.8949C20.1459 25.8949 20.3315 25.9461 20.5115 26.0499C20.6916 26.1536 20.7813 26.2742 20.7813 26.4149C20.7813 26.4549 20.7738 26.4942 20.7613 26.5342L18.7878 32.8249C18.6882 33.118 18.4054 33.2643 17.9406 33.2643C17.7413 33.2643 17.5625 33.2262 17.403 33.1493C17.2436 33.0724 17.147 32.9649 17.1134 32.8243L16.4761 30.1243L15.8282 32.8243C15.7946 32.9649 15.6987 33.0718 15.5392 33.1493C15.3797 33.2268 15.1997 33.2643 15.001 33.2643C14.7948 33.2643 14.6122 33.2262 14.4528 33.1493C14.2933 33.0724 14.1936 32.9649 14.1537 32.8243L12.1796 26.5342C12.1659 26.4942 12.1603 26.4549 12.1603 26.4149Z" fill="#1F212B"/>
<path d="M21.469 32.7943V26.3049C21.469 26.178 21.5251 26.078 21.6378 26.0049C21.7506 25.9317 21.8839 25.8949 22.0371 25.8949H25.5848C25.7181 25.8949 25.8197 25.9511 25.8888 26.0642C25.9586 26.178 25.9935 26.3086 25.9935 26.4549C25.9935 26.6149 25.9567 26.7517 25.8838 26.8649C25.8109 26.9774 25.7113 27.0342 25.5848 27.0342H22.7647V29.0336H24.2797C24.4062 29.0336 24.5059 29.0861 24.5788 29.1886C24.6516 29.293 24.6884 29.4143 24.6884 29.5543C24.6884 29.6811 24.6529 29.7961 24.5837 29.8999C24.5146 30.0036 24.4124 30.0549 24.2797 30.0549H22.7647V32.0643H25.5848C25.7113 32.0643 25.8109 32.1218 25.8838 32.2349C25.9567 32.348 25.9935 32.4837 25.9935 32.6437C25.9935 32.7912 25.9586 32.9205 25.8888 33.0343C25.8197 33.148 25.7181 33.2037 25.5848 33.2037H22.0371C21.8839 33.2037 21.7512 33.1668 21.6378 33.0937C21.5244 33.0205 21.469 32.9212 21.469 32.7943Z" fill="#1F212B"/>
<path d="M26.7522 32.8049V26.3049C26.7522 26.178 26.8083 26.078 26.921 26.0049C27.0338 25.9317 27.1671 25.8949 27.3203 25.8949H29.244C30.5796 25.8949 31.2468 26.4817 31.2468 27.6549C31.2468 28.468 30.9646 28.9974 30.4002 29.2443C30.7391 29.3786 30.9951 29.5668 31.1677 29.8093C31.3402 30.0518 31.4268 30.4074 31.4268 30.8749V31.0849C31.4268 31.8249 31.2468 32.363 30.8886 32.6999C30.5298 33.0355 30.0451 33.2043 29.4334 33.2043H27.3203C27.1534 33.2043 27.0176 33.1643 26.9117 33.0849C26.8045 33.0043 26.7522 32.9112 26.7522 32.8049ZM28.0374 28.7343H29.1537C29.4128 28.7343 29.6103 28.6586 29.7467 28.5049C29.8825 28.3511 29.951 28.1411 29.951 27.8749C29.951 27.6149 29.88 27.4099 29.7361 27.2599C29.5935 27.1099 29.3954 27.0355 29.1437 27.0355H28.0374V28.7343ZM28.0374 32.0643H29.1636C29.8084 32.0643 30.1311 31.7018 30.1311 30.9743V30.8143C30.1311 30.4418 30.0495 30.1711 29.8863 30.0049C29.723 29.8374 29.4832 29.7549 29.1636 29.7549H28.0374V32.0643Z" fill="#1F212B"/>
<path d="M32.3537 32.7943V26.2949C32.3537 26.1874 32.3986 26.0949 32.4877 26.0142C32.578 25.9349 32.6957 25.8949 32.8415 25.8949H34.8455C35.5295 25.8949 36.0783 26.0767 36.4901 26.4392C36.9019 26.803 37.1074 27.3718 37.1074 28.1449V28.2049C37.1074 28.9849 36.8932 29.5586 36.4652 29.9249C36.0366 30.2924 35.4697 30.4755 34.7652 30.4755H33.6495V32.7949C33.6495 32.9218 33.5847 33.0218 33.4545 33.0949C33.3243 33.168 33.1735 33.2049 33.0004 33.2049C32.8216 33.2049 32.6683 33.168 32.5425 33.0949C32.416 33.0212 32.3537 32.9212 32.3537 32.7943ZM33.6495 29.4543H34.7652C35.0972 29.4543 35.3551 29.358 35.5376 29.1649C35.7201 28.9705 35.8117 28.6836 35.8117 28.3043V28.1849C35.8117 27.8055 35.7201 27.5186 35.5376 27.3243C35.3551 27.1311 35.0972 27.0349 34.7652 27.0349H33.6495V29.4543Z" fill="#1F212B"/>
<path d="M16.4616 11.691H19.9244C20.1368 11.691 20.3092 11.518 20.3092 11.3049V9.7608C20.3092 9.54771 20.1368 9.37477 19.9244 9.37477H16.4616V11.691Z" fill="url(#paint0_linear_524_42)"/>
<path d="M18.0737 19.0256H16.4616V9.37477L14.604 11.2385C14.315 11.5284 14.153 11.921 14.153 12.3306V19.0256H12.5409C12.2639 19.0256 12.1253 19.3614 12.3212 19.5579L14.8995 22.1447C15.1249 22.3709 15.4905 22.3709 15.7155 22.1447L18.2938 19.5579C18.4897 19.3614 18.3508 19.0256 18.0737 19.0256Z" fill="url(#paint1_linear_524_42)"/>
<path d="M24.1568 20.1837H20.694C20.4816 20.1837 20.3092 20.3566 20.3092 20.5697V22.1138C20.3092 22.3269 20.4816 22.4998 20.694 22.4998H24.1568V20.1837Z" fill="url(#paint2_linear_524_42)"/>
<path d="M22.5447 12.8491H24.1568V22.4998L26.0144 20.6361C26.303 20.3466 26.4654 19.9536 26.4654 19.5444V12.8491H28.0775C28.3546 12.8491 28.4931 12.5132 28.2972 12.3167L25.7193 9.72992C25.4939 9.5037 25.1283 9.5037 24.9033 9.72992L22.325 12.3167C22.1287 12.5132 22.2676 12.8491 22.5447 12.8491Z" fill="url(#paint3_linear_524_42)"/>
<defs>
<linearGradient id="paint0_linear_524_42" x1="20.3092" y1="10.5329" x2="16.4616" y2="10.5329" gradientUnits="userSpaceOnUse">
<stop offset="0.266" stop-color="#199AE0"/>
<stop offset="0.582" stop-color="#1898DE"/>
<stop offset="0.745" stop-color="#1590D6"/>
<stop offset="0.873" stop-color="#1083C9"/>
<stop offset="0.982" stop-color="#0870B7"/>
<stop offset="1" stop-color="#076CB3"/>
</linearGradient>
<linearGradient id="paint1_linear_524_42" x1="12.5847" y1="9.83762" x2="17.6452" y2="22.8233" gradientUnits="userSpaceOnUse">
<stop stop-color="#32BDEF"/>
<stop offset="1" stop-color="#1EA2E4"/>
</linearGradient>
<linearGradient id="paint2_linear_524_42" x1="20.3092" y1="21.3417" x2="24.1568" y2="21.3417" gradientUnits="userSpaceOnUse">
<stop offset="0.266" stop-color="#199AE0"/>
<stop offset="0.582" stop-color="#1898DE"/>
<stop offset="0.745" stop-color="#1590D6"/>
<stop offset="0.873" stop-color="#1083C9"/>
<stop offset="0.982" stop-color="#0870B7"/>
<stop offset="1" stop-color="#076CB3"/>
</linearGradient>
<linearGradient id="paint3_linear_524_42" x1="23.5077" y1="9.63071" x2="28.0309" y2="22.4036" gradientUnits="userSpaceOnUse">
<stop stop-color="#32BDEF"/>
<stop offset="1" stop-color="#1EA2E4"/>
</linearGradient>
</defs>
</svg>

<svg xmlns="http://www.w3.org/2000/svg" width="50" height="50" fill="none" viewBox="0 0 50 50"><path fill="#c6dff1" d="M31.23.625H10.983C8.23.625 6 2.863 6 5.625V45c0 2.761 2.231 5 4.984 5h27.41c2.751 0 4.983-2.239 4.983-5V12.812z"/><path fill="#78a1d1" d="M43.688 12.812h-7.164c-2.924 0-5.295-2.378-5.295-5.312V.312z"/><path fill="#1f212b" d="M43.688 13.125h-7.164c-3.091 0-5.606-2.523-5.606-5.625V.312a.312.312 0 0 1 .532-.221l12.459 12.5a.313.313 0 0 1-.22.534M31.541 1.067V7.5c0 2.757 2.235 5 4.983 5h6.412zM35.59 46.875H13.787c-2.577 0-4.672-2.102-4.672-4.687V8.438c0-1.529.748-2.966 2.002-3.845a.311.311 0 1 1 .356.513 4.07 4.07 0 0 0-1.735 3.331v33.75c0 2.24 1.816 4.063 4.049 4.063H35.59c2.233 0 4.05-1.822 4.05-4.062V31.562a.312.312 0 1 1 .622 0v10.625c0 2.586-2.096 4.688-4.672 4.688M39.95 30.625a.31.31 0 0 1-.31-.313v-4.375a.312.312 0 1 1 .622 0v4.375c0 .173-.14.313-.311.313M39.95 25.045a.31.31 0 0 1-.31-.313v-1.92a.312.312 0 1 1 .622 0v1.92c0 .174-.14.313-.311.313"/><path fill="#1f212b" d="M12.16 26.415q0-.21.27-.365.267-.155.558-.155.358 0 .428.26l1.574 5.42.848-3.48q.09-.36.638-.36.538 0 .627.36l.847 3.48 1.575-5.42q.07-.26.428-.26a1.1 1.1 0 0 1 .559.155q.27.155.27.365-.001.06-.02.12l-1.974 6.29q-.15.44-.847.44-.299 0-.538-.116-.24-.114-.29-.325l-.637-2.7-.648 2.7q-.05.21-.289.325-.24.116-.538.115-.31 0-.548-.115-.24-.114-.3-.325l-1.973-6.29a.4.4 0 0 1-.02-.12M21.469 32.794v-6.49a.34.34 0 0 1 .169-.3.7.7 0 0 1 .4-.11h3.547q.2 0 .304.17.105.172.105.39 0 .241-.11.41a.34.34 0 0 1-.3.17h-2.82v2h1.516q.19 0 .299.155.11.156.11.365a.6.6 0 0 1-.105.346.34.34 0 0 1-.304.155h-1.515v2.01h2.82a.34.34 0 0 1 .299.17q.11.17.11.409a.73.73 0 0 1-.105.39.33.33 0 0 1-.304.17h-3.548a.7.7 0 0 1-.4-.11.34.34 0 0 1-.168-.3M26.752 32.805v-6.5a.34.34 0 0 1 .169-.3.7.7 0 0 1 .4-.11h1.923q2.003 0 2.003 1.76 0 1.219-.847 1.59.51.201.768.564.259.364.259 1.066v.21q0 1.11-.538 1.615-.539.503-1.456.504H27.32a.66.66 0 0 1-.408-.12q-.16-.12-.16-.28m1.285-4.07h1.117q.388 0 .593-.23.204-.231.204-.63 0-.39-.215-.615-.214-.225-.592-.225h-1.107zm0 3.33h1.127q.966 0 .967-1.09v-.16q0-.56-.245-.81-.244-.251-.722-.25h-1.127zM32.354 32.794v-6.5q0-.16.134-.28.135-.12.354-.12h2.004q1.026.001 1.644.545.617.546.617 1.706v.06q0 1.17-.642 1.72t-1.7.55H33.65v2.32q0 .19-.195.3a.9.9 0 0 1-.455.11.9.9 0 0 1-.458-.11q-.189-.111-.188-.3m1.296-3.34h1.115q.498 0 .773-.29.273-.29.274-.86v-.12q0-.568-.274-.86-.274-.29-.773-.29H33.65z"/><path fill="url(#a)" d="M16.462 11.691h3.462a.386.386 0 0 0 .385-.386V9.76a.386.386 0 0 0-.385-.386h-3.462z"/><path fill="url(#b)" d="M18.074 19.026h-1.612V9.375l-1.858 1.864c-.289.29-.451.682-.451 1.092v6.695h-1.612a.312.312 0 0 0-.22.532l2.579 2.587a.575.575 0 0 0 .816 0l2.578-2.587a.312.312 0 0 0-.22-.532"/><path fill="url(#c)" d="M24.157 20.184h-3.463a.386.386 0 0 0-.385.386v1.544c0 .213.173.386.385.386h3.463z"/><path fill="url(#d)" d="M22.545 12.85h1.612v9.65l1.857-1.864c.289-.29.451-.682.451-1.092V12.85h1.613a.312.312 0 0 0 .22-.532L25.718 9.73a.575.575 0 0 0-.816 0l-2.578 2.587a.312.312 0 0 0 .22.532"/><defs><linearGradient id="a" x1="20.309" x2="16.462" y1="10.533" y2="10.533" gradientUnits="userSpaceOnUse"><stop offset=".266" stop-color="#199ae0"/><stop offset=".582" stop-color="#1898de"/><stop offset=".745" stop-color="#1590d6"/><stop offset=".873" stop-color="#1083c9"/><stop offset=".982" stop-color="#0870b7"/><stop offset="1" stop-color="#076cb3"/></linearGradient><linearGradient id="b" x1="12.585" x2="17.645" y1="9.838" y2="22.823" gradientUnits="userSpaceOnUse"><stop stop-color="#32bdef"/><stop offset="1" stop-color="#1ea2e4"/></linearGradient><linearGradient id="c" x1="20.309" x2="24.157" y1="21.342" y2="21.342" gradientUnits="userSpaceOnUse"><stop offset=".266" stop-color="#199ae0"/><stop offset=".582" stop-color="#1898de"/><stop offset=".745" stop-color="#1590d6"/><stop offset=".873" stop-color="#1083c9"/><stop offset=".982" stop-color="#0870b7"/><stop offset="1" stop-color="#076cb3"/></linearGradient><linearGradient id="d" x1="23.508" x2="28.031" y1="9.631" y2="22.404" gradientUnits="userSpaceOnUse"><stop stop-color="#32bdef"/><stop offset="1" stop-color="#1ea2e4"/></linearGradient></defs></svg>
